packages/core/src/svgs/tokens/branded/AMB.svg

<svg width="24" height="24" viewBox="0 0 24 24" fill="none" xmlns="http://www.w3.org/2000/svg">
<path d="M17.1095 11.48C17.049 11.4793 16.9908 11.4566 16.9458 11.4161C16.9006 11.3756 16.8718 11.3202 16.8646 11.26C16.721 10.1841 16.2312 9.18412 15.4691 8.41117C14.7069 7.63822 13.7139 7.13431 12.6401 6.97559C12.5741 6.96568 12.5146 6.93029 12.4743 6.87701C12.4342 6.82372 12.4165 6.75681 12.4251 6.69063C12.4451 6.55564 12.5701 6.45066 12.7001 6.47065C15.0848 6.79562 16.9995 8.73538 17.3495 11.2001C17.3584 11.2661 17.3415 11.3331 17.3024 11.3869C17.2633 11.441 17.205 11.4778 17.1395 11.4901C17.1395 11.48 17.1295 11.48 17.1095 11.48ZM15.8298 15.8495C15.7995 15.8511 15.7694 15.8466 15.7411 15.8363C15.7127 15.8259 15.6867 15.8101 15.6647 15.7895C15.6143 15.7445 15.584 15.6812 15.5802 15.6137C15.5764 15.5462 15.5996 15.4799 15.6447 15.4295C16.3447 14.6347 16.7746 13.6598 16.8946 12.6049C16.9146 12.4649 17.0396 12.3599 17.1695 12.3849C17.2996 12.405 17.4046 12.5299 17.3845 12.6649C17.2555 13.8193 16.7757 14.9064 16.0096 15.7795C15.9597 15.8296 15.8897 15.8495 15.8298 15.8495ZM12.6801 17.5593C12.6195 17.5586 12.5613 17.5358 12.5162 17.4954C12.4712 17.4549 12.4424 17.3995 12.4352 17.3394C12.4151 17.2044 12.5201 17.0644 12.65 17.0544C13.4807 16.9395 14.2677 16.6124 14.9348 16.1045C14.9606 16.0835 14.9903 16.068 15.0223 16.059C15.0544 16.0501 15.0878 16.0479 15.1207 16.0526C15.1536 16.0574 15.1852 16.0688 15.2135 16.0863C15.2417 16.1039 15.266 16.1271 15.2847 16.1545C15.3598 16.2694 15.3398 16.4295 15.2298 16.5094C14.4958 17.0751 13.6276 17.4402 12.7101 17.5693C12.7001 17.5593 12.69 17.5593 12.6801 17.5593ZM11.3202 17.5593H11.2902C10.0766 17.3823 8.95706 16.8043 8.10995 15.9173C7.26284 15.0304 6.73686 13.8854 6.61579 12.6649C6.60859 12.5996 6.62694 12.5339 6.667 12.4817C6.70706 12.4296 6.76573 12.3948 6.83077 12.3849C6.96076 12.3599 7.08073 12.4649 7.10573 12.6049C7.21633 13.7135 7.69402 14.7533 8.46299 15.5594C9.23195 16.3656 10.2481 16.8917 11.3503 17.0544C11.4802 17.0794 11.5852 17.2044 11.5652 17.3394C11.5578 17.4003 11.5283 17.4565 11.4822 17.497C11.436 17.5376 11.3766 17.5597 11.3153 17.5593H11.3202ZM6.88075 11.48H6.84077C6.71078 11.4601 6.61579 11.33 6.62579 11.19C6.79077 10.0552 7.27572 9.01036 8.05062 8.17046C8.1406 8.06547 8.30059 8.06547 8.39558 8.16046C8.49557 8.25544 8.49557 8.42042 8.40558 8.51541C7.70363 9.27789 7.25331 10.2379 7.11573 11.265C7.11071 11.3238 7.08375 11.3787 7.04022 11.4184C6.99668 11.4583 6.93977 11.4803 6.88075 11.48ZM8.99551 7.92048C8.95643 7.91915 8.91814 7.90901 8.88352 7.89084C8.8489 7.87267 8.81882 7.84691 8.79553 7.81549C8.75574 7.76025 8.7392 7.69159 8.74949 7.62428C8.75976 7.55697 8.79604 7.49638 8.85053 7.45554C9.56579 6.93004 10.401 6.5915 11.2803 6.47065C11.4102 6.45066 11.5452 6.55564 11.5552 6.69063C11.5752 6.83062 11.4702 6.9656 11.3403 6.97559C10.5454 7.07559 9.7904 7.39554 9.14049 7.87549C9.0973 7.90757 9.04423 7.92349 8.99051 7.92048H8.99551Z" fill="url(#paint0_linear_364_13417)"/>
<path d="M12.0003 16.5345C9.58555 16.5345 7.62578 14.4997 7.62578 12.015C7.62578 9.52031 9.59554 7.50055 12.0003 7.50055C14.415 7.50055 16.3798 9.53031 16.3798 12.015C16.3798 14.5098 14.415 16.5345 12.0003 16.5345ZM12.0003 8.00049C10.9527 8.01891 9.95522 8.45176 9.22613 9.20422C8.49709 9.95669 8.09601 10.9674 8.11072 12.015C8.11072 14.2248 9.8605 16.0295 12.0003 16.0295C14.145 16.0295 15.8898 14.2298 15.8898 12.015C15.8798 9.80527 14.14 8.00049 12.0003 8.00049ZM6.86086 13.1148C7.16082 13.1148 7.4008 12.865 7.4008 12.5649C7.4028 12.4924 7.39037 12.42 7.36425 12.3522C7.33814 12.2844 7.29884 12.2224 7.24863 12.1699C7.19842 12.1173 7.13831 12.0753 7.07175 12.0462C7.0052 12.017 6.93351 12.0013 6.86086 12C6.5609 12 6.32593 12.25 6.32593 12.5549C6.32593 12.8599 6.56589 13.1099 6.86086 13.1099V13.1148ZM17.1597 11.8501C17.4596 11.8501 17.6996 11.6001 17.6996 11.295C17.7008 11.2228 17.688 11.1511 17.6615 11.0839C17.6352 11.0166 17.5957 10.9552 17.5456 10.9033C17.4954 10.8513 17.4356 10.8097 17.3693 10.7808C17.3032 10.752 17.2319 10.7365 17.1597 10.7351C16.8597 10.7351 16.6197 10.9851 16.6197 11.295C16.6197 11.5951 16.8597 11.8451 17.1597 11.8451V11.8501Z" fill="url(#paint1_linear_364_13417)"/>
<path d="M13.3398 10.8601C13.3398 10.1102 12.7499 9.50027 12.0299 9.50027C11.6763 9.50815 11.3401 9.65553 11.0948 9.91022C10.8494 10.165 10.7148 10.5064 10.7201 10.8601C10.7201 11.335 10.95 11.7499 11.31 11.9999L11.33 11.9C11.3466 11.8124 11.392 11.7327 11.459 11.6738C11.5261 11.615 11.6109 11.5802 11.7 11.575H12.3649C12.5448 11.575 12.7049 11.725 12.7348 11.9L12.7499 11.9999C13.0998 11.7499 13.3398 11.335 13.3398 10.8601Z" fill="url(#paint2_linear_364_13417)"/>
<path d="M11.2549 11.945L10.8749 14.1897C10.8399 14.3597 10.9749 14.4997 11.1549 14.4997H12.9047C13.0947 14.4997 13.2197 14.3597 13.1897 14.1897L12.7997 11.94C12.5797 12.0749 12.3148 12.16 12.0298 12.16C11.7448 12.16 11.4799 12.0749 11.2549 11.945Z" fill="url(#paint3_linear_364_13417)"/>
<path d="M12.3849 11.515H11.6749C11.5786 11.5171 11.486 11.5527 11.4131 11.6157C11.34 11.6786 11.2913 11.765 11.2751 11.86L11.26 11.9599C11.4851 12.1215 11.7553 12.2084 12.0325 12.2084C12.3095 12.2084 12.5797 12.1215 12.8048 11.9599L12.7799 11.86C12.7648 11.7649 12.7172 11.678 12.6451 11.6142C12.5731 11.5504 12.4811 11.5135 12.3849 11.51V11.515Z" fill="url(#paint4_linear_364_13417)"/>
<path d="M21.5339 12.4749C21.4517 12.4753 21.3709 12.4531 21.3004 12.4108C21.2298 12.3684 21.1723 12.3076 21.1339 12.235C21.0989 12.1849 18.1993 7.00055 12 7.00055C5.80075 7.00055 2.9011 12.1849 2.8711 12.235C2.84274 12.2892 2.80381 12.3374 2.75659 12.3765C2.70937 12.4155 2.65481 12.4448 2.59613 12.4626C2.53745 12.4802 2.47581 12.486 2.41486 12.4796C2.3539 12.4731 2.29485 12.4545 2.24117 12.4249C2.1328 12.3611 2.05315 12.258 2.01872 12.137C1.98428 12.0159 1.9977 11.8863 2.0562 11.775C2.18118 11.545 5.22582 6.00067 12 6.00067C18.7642 6.00067 21.8089 11.545 21.9439 11.775C22.0023 11.8863 22.0157 12.0159 21.9813 12.137C21.9469 12.258 21.8672 12.3611 21.7588 12.4249C21.6889 12.4549 21.6088 12.4749 21.5339 12.4749Z" fill="url(#paint5_linear_364_13417)"/>
<path d="M12 17.9993C5.23582 17.9993 2.19118 12.4549 2.0562 12.225C1.9977 12.1136 1.98428 11.984 2.01872 11.863C2.05315 11.7421 2.1328 11.639 2.24117 11.575C2.29485 11.5455 2.3539 11.5268 2.41486 11.5204C2.47581 11.514 2.53745 11.5197 2.59613 11.5375C2.65481 11.5552 2.70937 11.5845 2.75659 11.6236C2.80381 11.6626 2.84274 11.7107 2.8711 11.7651C2.9011 11.8151 5.79575 16.9994 12 16.9994C18.2043 16.9994 21.0989 11.8151 21.1289 11.7651C21.1573 11.7107 21.1962 11.6626 21.2435 11.6236C21.2907 11.5845 21.3452 11.5552 21.4039 11.5375C21.4625 11.5197 21.5243 11.514 21.5851 11.5204C21.6462 11.5268 21.7052 11.5455 21.7588 11.575C21.9839 11.7001 22.0638 11.995 21.9439 12.225C21.8089 12.465 18.7642 17.9993 12 17.9993Z" fill="url(#paint6_linear_364_13417)"/>
<defs>
<linearGradient id="paint0_linear_364_13417" x1="2.00013" y1="12" x2="22.0002" y2="12" gradientUnits="userSpaceOnUse">
<stop stop-color="#22B5FF"/>
<stop offset="1" stop-color="#5810C8"/>
</linearGradient>
<linearGradient id="paint1_linear_364_13417" x1="2.00023" y1="12" x2="22.0003" y2="12" gradientUnits="userSpaceOnUse">
<stop stop-color="#22B5FF"/>
<stop offset="1" stop-color="#5810C8"/>
</linearGradient>
<linearGradient id="paint2_linear_364_13417" x1="1.9999" y1="11.9999" x2="22" y2="11.9999" gradientUnits="userSpaceOnUse">
<stop stop-color="#22B5FF"/>
<stop offset="1" stop-color="#5810C8"/>
</linearGradient>
<linearGradient id="paint3_linear_364_13417" x1="1.99979" y1="11.9999" x2="21.9999" y2="11.9999" gradientUnits="userSpaceOnUse">
<stop stop-color="#22B5FF"/>
<stop offset="1" stop-color="#5810C8"/>
</linearGradient>
<linearGradient id="paint4_linear_364_13417" x1="1.99991" y1="12" x2="22" y2="12" gradientUnits="userSpaceOnUse">
<stop stop-color="#22B5FF"/>
<stop offset="1" stop-color="#5810C8"/>
</linearGradient>
<linearGradient id="paint5_linear_364_13417" x1="1.99999" y1="11.9999" x2="22.0001" y2="11.9999" gradientUnits="userSpaceOnUse">
<stop stop-color="#22B5FF"/>
<stop offset="1" stop-color="#5810C8"/>
</linearGradient>
<linearGradient id="paint6_linear_364_13417" x1="1.99999" y1="12" x2="22.0001" y2="12" gradientUnits="userSpaceOnUse">
<stop stop-color="#22B5FF"/>
<stop offset="1" stop-color="#5810C8"/>
</linearGradient>
</defs>
</svg>

<svg xmlns="http://www.w3.org/2000/svg" width="24" height="24" fill="none" viewBox="0 0 24 24">
    <path fill="url(#AMB__a)" d="M17.11 11.48a.25.25 0 0 1-.245-.22 5 5 0 0 0-4.225-4.284.255.255 0 0 1-.215-.285c.02-.135.145-.24.275-.22 2.385.325 4.3 2.264 4.65 4.73a.26.26 0 0 1-.21.29c0-.011-.01-.011-.03-.011m-1.28 4.37a.22.22 0 0 1-.165-.06.255.255 0 0 1-.02-.36c.7-.795 1.13-1.77 1.25-2.825.02-.14.145-.245.274-.22.13.02.236.145.215.28a5.7 5.7 0 0 1-1.374 3.115c-.05.05-.12.07-.18.07m-3.15 1.71a.25.25 0 0 1-.245-.22c-.02-.136.085-.276.215-.286a4.9 4.9 0 0 0 2.285-.95.24.24 0 0 1 .186-.051.24.24 0 0 1 .164.101c.075.115.055.276-.055.355a5.35 5.35 0 0 1-2.52 1.06c-.01-.01-.02-.01-.03-.01m-1.36 0h-.03a5.494 5.494 0 0 1-4.674-4.895.255.255 0 0 1 .215-.28c.13-.025.25.08.275.22a5 5 0 0 0 4.244 4.45c.13.024.235.15.215.284a.25.25 0 0 1-.25.22zm-4.44-6.08h-.04c-.13-.02-.224-.15-.214-.29A5.6 5.6 0 0 1 8.05 8.17a.236.236 0 0 1 .345-.01c.1.095.1.26.01.355a5.05 5.05 0 0 0-1.29 2.75.235.235 0 0 1-.235.215m2.116-3.56a.26.26 0 0 1-.2-.105.26.26 0 0 1 .055-.36 5.3 5.3 0 0 1 2.43-.984c.13-.02.264.085.274.22.02.14-.085.275-.215.285-.795.1-1.55.42-2.2.9a.23.23 0 0 1-.15.044z"/>
    <path fill="url(#AMB__b)" d="M12 16.535c-2.414 0-4.374-2.035-4.374-4.52 0-2.495 1.97-4.514 4.374-4.514 2.415 0 4.38 2.03 4.38 4.514 0 2.495-1.965 4.52-4.38 4.52M12 8a3.96 3.96 0 0 0-3.89 4.015c0 2.21 1.75 4.014 3.89 4.014 2.145 0 3.89-1.8 3.89-4.014C15.88 9.805 14.14 8 12 8m-5.14 5.115c.3 0 .54-.25.54-.55A.55.55 0 0 0 6.86 12c-.3 0-.534.25-.534.555s.24.555.535.555zm10.3-1.265c.3 0 .54-.25.54-.555a.55.55 0 0 0-.54-.56c-.3 0-.54.25-.54.56 0 .3.24.55.54.55z"/>
    <path fill="url(#AMB__c)" d="M13.34 10.86c0-.75-.59-1.36-1.31-1.36a1.34 1.34 0 0 0-1.31 1.36c0 .475.23.89.59 1.14l.02-.1a.4.4 0 0 1 .37-.325h.665c.18 0 .34.15.37.325l.015.1c.35-.25.59-.665.59-1.14"/>
    <path fill="url(#AMB__d)" d="m11.255 11.945-.38 2.245c-.035.17.1.31.28.31h1.75c.19 0 .315-.14.285-.31l-.39-2.25a1.48 1.48 0 0 1-1.545.005"/>
    <path fill="url(#AMB__e)" d="M12.385 11.515h-.71a.414.414 0 0 0-.4.345l-.015.1a1.325 1.325 0 0 0 1.545 0l-.025-.1a.415.415 0 0 0-.395-.35z"/>
    <path fill="url(#AMB__f)" d="M21.534 12.475a.45.45 0 0 1-.4-.24c-.035-.05-2.935-5.234-9.134-5.234-6.2 0-9.099 5.184-9.129 5.234a.46.46 0 0 1-.63.19.49.49 0 0 1-.185-.65c.125-.23 3.17-5.774 9.944-5.774 6.764 0 9.809 5.544 9.944 5.774a.49.49 0 0 1-.185.65c-.07.03-.15.05-.225.05"/>
    <path fill="url(#AMB__g)" d="M12 18c-6.764 0-9.809-5.545-9.944-5.775a.49.49 0 0 1 .185-.65.46.46 0 0 1 .63.19C2.901 11.815 5.796 17 12 17s9.099-5.184 9.129-5.234a.46.46 0 0 1 .63-.19.49.49 0 0 1 .185.65C21.809 12.466 18.764 18 12 18"/>
    <defs>
        <linearGradient id="AMB__a" x1="2" x2="22" y1="12" y2="12" gradientUnits="userSpaceOnUse">
            <stop stop-color="#22B5FF"/>
            <stop offset="1" stop-color="#5810C8"/>
        </linearGradient>
        <linearGradient id="AMB__b" x1="2" x2="22" y1="12" y2="12" gradientUnits="userSpaceOnUse">
            <stop stop-color="#22B5FF"/>
            <stop offset="1" stop-color="#5810C8"/>
        </linearGradient>
        <linearGradient id="AMB__c" x1="2" x2="22" y1="12" y2="12" gradientUnits="userSpaceOnUse">
            <stop stop-color="#22B5FF"/>
            <stop offset="1" stop-color="#5810C8"/>
        </linearGradient>
        <linearGradient id="AMB__d" x1="2" x2="22" y1="12" y2="12" gradientUnits="userSpaceOnUse">
            <stop stop-color="#22B5FF"/>
            <stop offset="1" stop-color="#5810C8"/>
        </linearGradient>
        <linearGradient id="AMB__e" x1="2" x2="22" y1="12" y2="12" gradientUnits="userSpaceOnUse">
            <stop stop-color="#22B5FF"/>
            <stop offset="1" stop-color="#5810C8"/>
        </linearGradient>
        <linearGradient id="AMB__f" x1="2" x2="22" y1="12" y2="12" gradientUnits="userSpaceOnUse">
            <stop stop-color="#22B5FF"/>
            <stop offset="1" stop-color="#5810C8"/>
        </linearGradient>
        <linearGradient id="AMB__g" x1="2" x2="22" y1="12" y2="12" gradientUnits="userSpaceOnUse">
            <stop stop-color="#22B5FF"/>
            <stop offset="1" stop-color="#5810C8"/>
        </linearGradient>
    </defs>
</svg>
